frontend/public/svg/hand gestures/scroll-down.svg

<svg width="113" height="154" viewBox="0 0 113 154" fill="none" xmlns="http://www.w3.org/2000/svg">
<g clip-path="url(#clip0)">
<path d="M95.0671 143.189C100.984 138.278 105.109 131.572 107.673 122.683C111.098 110.876 112.553 98.5845 111.981 86.3038C111.739 82.8036 110.968 79.3604 109.694 76.0912C108.924 73.7454 107.366 71.739 105.284 70.4106C103.202 69.0828 100.725 68.5157 98.274 68.8058C96.4546 69.0612 94.6766 69.5495 92.9826 70.2596C92.2573 70.5222 91.5104 70.7998 90.7464 71.0472C89.9805 69.2653 88.8129 67.6835 87.3348 66.4267C85.8574 65.1697 84.1095 64.271 82.2272 63.8007C77.6092 62.5536 73.8063 63.5716 70.9184 66.8296C69.3688 64.3454 67.2646 61.8277 63.5943 61.1799C60.4176 60.6201 57.8342 61.8658 54.8059 64.1151C54.8098 63.7495 54.8157 63.4102 54.8216 63.0918C54.8531 62.2401 54.8421 61.3873 54.7882 60.5367C54.6281 58.5747 54.4702 56.6125 54.3149 54.65C53.7937 48.1149 53.2545 41.3572 52.5693 34.7256C52.0107 29.3055 50.4401 24.8352 47.7682 21.0593C45.0352 17.1954 41.2232 16.396 37.0351 18.8094C35.9152 19.4368 34.9351 20.2862 34.1546 21.3053C33.3742 22.3245 32.8097 23.4921 32.4958 24.7368C31.9652 26.5956 31.6462 28.5085 31.5453 30.439L31.4258 33.7043C31.1462 41.2358 30.858 49.0239 30.8508 56.6873C30.8449 62.7479 31.0302 68.6772 31.2258 74.9538C31.3026 77.4295 31.3807 79.919 31.4463 82.4295L31.2703 82.2864C30.7879 81.8926 30.3323 81.523 29.8538 81.1844C23.0463 76.3715 15.8988 74.7188 8.61479 76.2704C7.07181 76.5716 5.62705 77.249 4.40854 78.2427C3.19003 79.2364 2.23537 80.5149 1.62936 81.9654C1.01507 83.4783 0.78366 85.1191 0.955395 86.7429C1.12713 88.366 1.6967 89.9222 2.61386 91.2729C3.87155 93.0221 5.34968 94.6019 7.01146 95.973C12.312 100.754 16.2395 105.682 19.0178 111.037C23.1974 119.091 27.8784 127.563 33.3345 136.938C34.7706 139.404 37.0481 141.409 38.8714 142.878C42.3309 145.668 46.4605 147.949 51.8667 150.057C56.6668 151.951 61.781 152.922 66.941 152.921C72.7752 152.851 78.5536 151.77 84.0183 149.726C88.0574 148.215 91.7979 146.002 95.0671 143.189ZM43.0097 136.429C41.8359 135.634 40.8134 134.636 39.9905 133.481C37.958 130.538 36.074 127.496 34.3459 124.364C31.8742 119.776 29.3937 114.872 26.7625 109.369C22.533 100.527 17.2884 93.7631 10.729 88.6903C10.6513 88.6338 10.5778 88.5715 10.5092 88.5045C10.3051 88.2938 10.0931 88.0858 9.8791 87.8764C8.49751 86.5224 7.19195 85.2438 8.03728 83.1567C8.90102 81.0236 11.1181 80.8345 13.139 80.8345H13.1784C15.7254 80.7965 18.2546 81.2638 20.6195 82.2102C22.9845 83.1567 25.1383 84.5632 26.9558 86.3478C28.7953 88.0897 30.0252 90.377 30.4637 92.8718C31.0406 96.0878 32.9028 96.504 33.9575 96.4606C35.6751 96.395 37.0067 94.9734 37.436 92.7536C37.5644 91.9562 37.61 91.1469 37.5719 90.3396C37.4098 81.8558 37.2488 73.5413 37.0572 65.0937C37.0145 63.2467 36.9419 61.3696 36.871 59.5542C36.7345 56.0756 36.5933 52.4808 36.6688 48.953C36.8178 42.0254 37.2869 35.1332 37.7398 28.4667C37.978 24.9507 38.5523 24.0745 41.7736 22.5347C43.9468 24.11 45.2367 26.3848 45.8274 29.681C46.6794 34.2974 47.2771 38.9572 47.6179 43.6393C48.0898 50.5827 48.4422 57.6528 48.7828 64.4898C48.939 67.6198 49.0989 70.7499 49.2626 73.8793C49.3407 75.3449 49.7101 77.3376 51.9988 77.7189C54.3268 78.1068 55.2806 76.1621 55.8497 74.9991L56.3819 73.901C57.3008 72.0009 58.2492 70.0365 59.3355 68.2014C59.8802 67.2785 61.1076 65.8071 63.219 66.3118C63.985 66.4977 64.6777 66.9084 65.2089 67.4905C65.74 68.0727 66.0853 68.8006 66.2001 69.5803C66.5125 71.21 66.7166 72.8581 66.8131 74.514C66.8413 75.1198 66.8236 75.7269 66.7606 76.3301C66.7297 76.7239 66.6995 77.1177 66.691 77.5115C66.6562 79.1839 67.4786 80.2438 69.0105 80.4946C69.3505 80.5851 69.7062 80.6055 70.0547 80.5549C70.4032 80.5044 70.7373 80.3843 71.0386 80.2012C71.3392 80.0181 71.5997 79.7759 71.8052 79.4897C72.0099 79.2036 72.155 78.8787 72.2311 78.5347C72.3145 78.2532 72.3913 77.9696 72.4687 77.6861C72.5678 77.3245 72.6656 76.9641 72.7765 76.6045C72.9013 76.2034 73.0161 75.7985 73.1316 75.3929C73.3869 74.4057 73.7118 73.4376 74.103 72.4958L74.1562 72.375C75.1525 70.1362 76.0963 68.0169 78.956 68.2827C82.1235 68.5715 84.2447 70.1586 85.2607 73.0012C85.6152 74.1294 85.8508 75.2905 85.9657 76.4673L86.0654 77.2057C86.1166 77.669 86.1291 78.1363 86.1028 78.6017C86.095 78.9102 86.0871 79.2193 86.0976 79.5265C86.1947 82.2339 86.9351 83.477 88.6573 83.8183C90.7851 84.237 91.7001 82.7465 92.5041 81.4298L92.6032 81.2684C92.7863 80.9704 92.9668 80.6692 93.148 80.3679C93.8929 79.029 94.7658 77.7649 95.753 76.5926C97.0945 75.1119 98.7065 74.4044 100.15 74.6505C101.499 74.8783 102.622 75.9055 103.315 77.5424C104.471 80.2727 106.026 84.3683 106.173 88.3765C106.562 99.0171 105.187 109.648 102.104 119.84C100.764 124.207 98.7859 128.353 96.2327 132.14C92.8421 137.18 87.6446 140.744 80.3454 143.036C67.285 147.134 55.0758 144.974 43.0097 136.43V136.429Z" fill="black"/>
<path d="M12.6817 39.6592C12.2807 39.3219 11.8941 38.9957 11.5226 38.6793C10.3779 37.7099 9.29635 36.7943 8.20946 35.9312C6.97686 34.9533 5.70403 34.9146 4.7169 35.8321C3.17385 37.2662 4.5528 38.7535 5.00501 39.2451L6.04464 40.3668C8.8505 43.3971 11.7547 46.5304 14.6879 49.5345C15.0304 49.9466 15.4527 50.2855 15.9291 50.5309C16.4055 50.7763 16.9265 50.9231 17.461 50.9626C17.5122 50.9626 17.564 50.9626 17.6152 50.958C18.1095 50.9006 18.5853 50.7352 19.0086 50.4735C19.4318 50.2118 19.7925 49.8604 20.0649 49.4439C22.3568 46.4648 24.5816 43.359 26.7324 40.3556L28.0012 38.5835C28.5034 38.0246 28.8074 37.3157 28.8662 36.5665C28.8091 35.8498 28.5061 34.5227 27.7355 34.0947C26.9525 33.6589 25.6484 34.0508 25.0019 34.3514C24.5537 34.6303 24.2026 35.0409 23.9968 35.5269C23.9013 35.7051 23.7968 35.8784 23.6837 36.0461L19.6585 41.8074L19.4615 41.7103C19.4267 41.451 19.3868 41.1924 19.3467 40.9331C19.2327 40.2764 19.1583 39.6134 19.1236 38.9478C18.8532 30.1296 18.5951 21.3118 18.3497 12.4941L18.1837 6.68349C18.1738 6.35532 18.1744 6.02321 18.1744 5.69242C18.189 5.00351 18.1612 4.31438 18.0911 3.6289C17.8036 1.26215 16.5161 0.848658 15.4836 0.924793C14.1769 1.01799 13.4567 1.94475 13.3419 3.68142C13.2914 4.45065 13.2331 5.21987 13.1747 5.9891C13.023 7.98635 12.8653 10.0511 12.8522 12.0884C12.8148 17.5905 12.8248 23.1839 12.8339 28.5934C12.8392 31.6169 12.8416 34.6404 12.8416 37.664C12.8295 38.2114 12.7885 38.7578 12.7189 39.3008C12.7051 39.4163 12.6922 39.5359 12.6817 39.6592Z" fill="black"/>
</g>
<defs>
<clipPath id="clip0">
<rect width="111.577" height="152.27" fill="white" transform="translate(0.736206 0.914795)"/>
</clipPath>
</defs>
</svg>

<svg xmlns="http://www.w3.org/2000/svg" width="113" height="154" fill="none" viewBox="0 0 113 154"><g fill="#000" clip-path="url(#a)"><path d="M95.067 143.189c5.917-4.911 10.042-11.617 12.606-20.506a111.9 111.9 0 0 0 4.308-36.38 34.7 34.7 0 0 0-2.287-10.212 10.695 10.695 0 0 0-11.42-7.285c-1.82.255-3.597.743-5.291 1.454-.726.262-1.473.54-2.237.787a12.6 12.6 0 0 0-8.519-7.246c-4.618-1.247-8.42-.23-11.309 3.029-1.55-2.485-3.653-5.002-7.324-5.65-3.176-.56-5.76.686-8.788 2.935q.006-.547.016-1.023a26 26 0 0 0-.034-2.555q-.24-2.943-.473-5.887c-.521-6.535-1.06-13.293-1.746-19.924-.558-5.42-2.129-9.89-4.8-13.667-2.734-3.864-6.546-4.663-10.734-2.25a9.44 9.44 0 0 0-4.54 5.928 25.7 25.7 0 0 0-.95 5.702l-.12 3.265c-.279 7.532-.567 15.32-.574 22.983-.006 6.06.18 11.99.375 18.267.077 2.476.155 4.965.22 7.476l-.176-.144a26 26 0 0 0-1.416-1.102c-6.808-4.812-13.955-6.465-21.24-4.914a9.55 9.55 0 0 0-6.985 5.695 9.92 9.92 0 0 0 .985 9.308 25 25 0 0 0 4.397 4.7c5.301 4.781 9.229 9.709 12.007 15.064 4.18 8.054 8.86 16.526 14.316 25.901 1.437 2.466 3.714 4.471 5.537 5.94 3.46 2.79 7.59 5.071 12.996 7.179a41 41 0 0 0 15.074 2.864 50.5 50.5 0 0 0 17.077-3.195 36.6 36.6 0 0 0 11.05-6.537m-52.057-6.76a11.9 11.9 0 0 1-3.02-2.948 107 107 0 0 1-5.644-9.117c-2.472-4.588-4.952-9.492-7.583-14.995-4.23-8.842-9.475-15.606-16.034-20.679a2 2 0 0 1-.22-.186q-.308-.314-.63-.628c-1.381-1.354-2.687-2.632-1.842-4.72.864-2.132 3.081-2.322 5.102-2.322h.04a19.25 19.25 0 0 1 13.777 5.514 11.8 11.8 0 0 1 3.508 6.524c.577 3.216 2.439 3.632 3.494 3.589 1.717-.066 3.049-1.488 3.478-3.707.128-.798.174-1.607.136-2.414a7030 7030 0 0 0-.515-25.246 350 350 0 0 0-.186-5.54c-.137-3.478-.278-7.073-.202-10.601.149-6.928.618-13.82 1.07-20.486.239-3.516.813-4.392 4.035-5.932 2.173 1.575 3.463 3.85 4.053 7.146.852 4.616 1.45 9.276 1.79 13.958.473 6.944.825 14.014 1.166 20.85q.234 4.695.48 9.39c.078 1.466.447 3.459 2.736 3.84 2.328.388 3.282-1.557 3.85-2.72l.533-1.098c.919-1.9 1.867-3.864 2.954-5.7.544-.922 1.772-2.394 3.883-1.89a3.96 3.96 0 0 1 2.981 3.27c.313 1.629.517 3.277.613 4.933q.042.91-.052 1.816c-.031.394-.061.788-.07 1.181-.035 1.673.788 2.733 2.32 2.984a2.6 2.6 0 0 0 2.028-.294 2.63 2.63 0 0 0 1.192-1.666c.084-.282.16-.565.238-.849.099-.362.197-.722.308-1.082q.184-.601.355-1.211.383-1.482.971-2.897l.053-.121c.996-2.239 1.94-4.358 4.8-4.092 3.168.288 5.289 1.876 6.305 4.718.354 1.128.59 2.29.705 3.466l.1.739a8.4 8.4 0 0 1 .037 1.396c-.008.308-.016.617-.005.924.097 2.708.837 3.951 2.56 4.292 2.127.419 3.042-1.072 3.846-2.388l.1-.162q.273-.448.544-.9a24 24 0 0 1 2.605-3.775c1.341-1.481 2.954-2.189 4.397-1.943 1.349.228 2.472 1.255 3.165 2.892 1.156 2.73 2.711 6.826 2.858 10.834a96.5 96.5 0 0 1-4.069 31.464 46.3 46.3 0 0 1-5.871 12.3c-3.39 5.04-8.588 8.604-15.888 10.896-13.06 4.098-25.27 1.938-37.335-6.606z"/><path d="M12.682 39.66q-.602-.507-1.16-.98a138 138 0 0 0-3.312-2.75c-1.232-.978-2.505-1.016-3.492-.099-1.543 1.434-.164 2.922.288 3.413l1.04 1.122c2.806 3.03 5.71 6.163 8.643 9.168a4 4 0 0 0 2.773 1.428q.077.001.154-.005a3.4 3.4 0 0 0 2.45-1.514c2.292-2.98 4.517-6.085 6.667-9.088l1.27-1.773a3.42 3.42 0 0 0 .864-2.017c-.057-.716-.36-2.043-1.13-2.471-.784-.436-2.088-.044-2.734.256-.448.28-.8.69-1.005 1.176q-.144.267-.313.52l-4.026 5.76-.197-.097q-.053-.389-.114-.777a17 17 0 0 1-.223-1.985q-.406-13.227-.774-26.454l-.166-5.81c-.01-.329-.01-.66-.01-.992a17 17 0 0 0-.083-2.063c-.287-2.367-1.575-2.78-2.607-2.704-1.307.093-2.027 1.02-2.142 2.756-.05.77-.109 1.539-.167 2.308-.152 1.997-.31 4.062-.323 6.1-.037 5.501-.027 11.095-.018 16.504q.008 4.536.008 9.071a16 16 0 0 1-.123 1.637q-.021.173-.037.358"/></g><defs><clipPath id="a"><path fill="#fff" d="M.736.915h111.577v152.27H.736z"/></clipPath></defs></svg>
